img/pnpm-light-no-name.svg

<?xml version="1.0" encoding="UTF-8" standalone="no"?>
<!DOCTYPE svg PUBLIC "-//W3C//DTD SVG 1.1//EN" "http://www.w3.org/Graphics/SVG/1.1/DTD/svg11.dtd">
<svg version="1.1" xmlns="http://www.w3.org/2000/svg" xmlns:xlink="http://www.w3.org/1999/xlink" preserveAspectRatio="xMidYMid meet" viewBox="76.58987244897958 44 164.00775510204068 164" width="160.01" height="160"><defs><path d="M237.6 95L187.6 95L187.6 45L237.6 45L237.6 95Z" id="a7nkpY5fFy"></path><path d="M182.59 95L132.59 95L132.59 45L182.59 45L182.59 95Z" id="b21kvNK4d7"></path><path d="M127.59 95L77.59 95L77.59 45L127.59 45L127.59 95Z" id="en4AbanYM"></path><path d="M237.6 150L187.6 150L187.6 100L237.6 100L237.6 150Z" id="a3fjOVtiTl"></path><path d="M182.59 150L132.59 150L132.59 100L182.59 100L182.59 150Z" id="ceoxWhMH1"></path><path d="M182.59 205L132.59 205L132.59 155L182.59 155L182.59 205Z" id="a6qEju1"></path><path d="M237.6 205L187.6 205L187.6 155L237.6 155L237.6 205Z" id="adUpTWfSm"></path><path d="M127.59 205L77.59 205L77.59 155L127.59 155L127.59 205Z" id="b1mjaQmkkR"></path></defs><g><g><use xlink:href="#a7nkpY5fFy" opacity="1" fill="#f9ad00" fill-opacity="1"></use></g><g><use xlink:href="#b21kvNK4d7" opacity="1" fill="#f9ad00" fill-opacity="1"></use></g><g><use xlink:href="#en4AbanYM" opacity="1" fill="#f9ad00" fill-opacity="1"></use></g><g><use xlink:href="#a3fjOVtiTl" opacity="1" fill="#f9ad00" fill-opacity="1"></use></g><g><use xlink:href="#ceoxWhMH1" opacity="1" fill="#ffffff" fill-opacity="1"></use></g><g><use xlink:href="#a6qEju1" opacity="1" fill="#ffffff" fill-opacity="1"></use></g><g><use xlink:href="#adUpTWfSm" opacity="1" fill="#ffffff" fill-opacity="1"></use></g><g><use xlink:href="#b1mjaQmkkR" opacity="1" fill="#ffffff" fill-opacity="1"></use></g></g></svg>

<svg xmlns="http://www.w3.org/2000/svg" xmlns:xlink="http://www.w3.org/1999/xlink" viewBox="76.59 44 164.008 164" width="160.01" height="160"><defs><path d="M237.6 95h-50V45h50v50z" id="a"/><path d="M182.59 95h-50V45h50v50z" id="b"/><path d="M127.59 95h-50V45h50v50z" id="c"/><path d="M237.6 150h-50v-50h50v50z" id="d"/><path d="M182.59 150h-50v-50h50v50z" id="e"/><path d="M182.59 205h-50v-50h50v50z" id="f"/><path d="M237.6 205h-50v-50h50v50z" id="g"/><path d="M127.59 205h-50v-50h50v50z" id="h"/></defs><use xlink:href="#a" fill="#f9ad00"/><use xlink:href="#b" fill="#f9ad00"/><use xlink:href="#c" fill="#f9ad00"/><use xlink:href="#d" fill="#f9ad00"/><use xlink:href="#e" fill="#fff"/><use xlink:href="#f" fill="#fff"/><use xlink:href="#g" fill="#fff"/><use xlink:href="#h" fill="#fff"/></svg>
